src/bars.svg

<svg xmlns="http://www.w3.org/2000/svg" xmlns:xlink="http://www.w3.org/1999/xlink" viewBox="0 0 16 16" width="16" height="16">
<path d="m4 3v2h11v-2zm0 6h7v-2h-7zm0 4h4v-2h-4zm-3 2h1.4v-14h-1.4z"/>
</svg>

<svg xmlns="http://www.w3.org/2000/svg" xmlns:xlink="http://www.w3.org/1999/xlink" viewBox="0 0 16 16" width="16" height="16">
<path d="M4,3v2h11V3H4z M4,9h7V7H4V9z M4,13h4v-2H4V13z M1,15h1.4V1H1V15z"/>
</svg>
